material/.icons/material/bus-stop-uncovered.svg

<svg xmlns="http://www.w3.org/2000/svg" viewBox="0 0 24 24"><path d="M6 22v-3H4v3H2v-8a1 1 0 011-1 1 1 0 011 1v3h3a1 1 0 011 1v4m12-11v11h-1V11a2.5 2.5 0 111 0m-5 .55V16h-1v6h-1.5v-5h-1v5H10v-6H9v-4.5a1.5 1.5 0 011.5-1.5h3a1.5 1.5 0 011.5 1.5m-3-4.95A1.5 1.5 0 1013.5 8 1.5 1.5 0 0012 6.5z"/></svg>

<?xml version="1.0" encoding="UTF-8"?><!DOCTYPE svg PUBLIC "-//W3C//DTD SVG 1.1//EN" "http://www.w3.org/Graphics/SVG/1.1/DTD/svg11.dtd"><svg xmlns="http://www.w3.org/2000/svg" xmlns:xlink="http://www.w3.org/1999/xlink" version="1.1" id="mdi-bus-stop-uncovered" width="24" height="24" viewBox="0 0 24 24"><path d="M6 22V19H4V22H2V14A1 1 0 0 1 3 13A1 1 0 0 1 4 14V17H7A1 1 0 0 1 8 18V22M20 11V22H19V11A2.5 2.5 0 1 1 20 11M15 11.55V16H14V22H12.5V17H11.5V22H10V16H9V11.5A1.5 1.5 0 0 1 10.5 10H13.5A1.5 1.5 0 0 1 15 11.5M12 6.55A1.5 1.5 0 1 0 13.5 8A1.5 1.5 0 0 0 12 6.5Z" /></svg>
